images/class_icons/scoundrel.svg

<svg height="400" viewBox="0 0 400 400" width="400" xmlns="http://www.w3.org/2000/svg"><path d="m181.93.769c-.277.112-.893.848-1.779 2.127-3.797 5.477-121.301 189.229-129.917 203.162-1.594 2.579-1.612 3.058-.236 6.277 1.221 2.857 12.53 27.285 19.151 41.369 2.599 5.528 2.561 5.405 2.232 7.236-.341 1.893-1.181 4.345-7.278 21.246-3.409 9.447-4.746 13.248-4.684 13.311.024.023 1.042-.539 2.262-1.25 3.522-2.053 5.219-2.862 8.842-4.216 1.118-.418 2.162-.851 2.318-.962.378-.269-.433 1.765 32.74-82.051 28.695-72.504 29.898-75.528 29.907-75.184.01.404-1.673 5.666-6.069 18.976-12.115 36.674-15.287 46.491-15.025 46.491.243 0 2.307-1.726 28.341-23.713 17.401-14.695 21.644-18.34 21.759-18.694.528-1.617 5.719-41.097 16.41-124.8 3.477-27.225 3.545-27.865 3.025-28.527-.445-.565-1.516-.993-1.999-.798m121.856 43.915c-1.928 1.175-30.432 25.028-96.971 81.147-52.351 44.153-86.936 73.385-89.731 75.844-1.888 1.661-1.9 2.448-.224 15.022.294 2.21 1.356 10.152 2.359 17.648 3.522 26.331 3.339 24.124 2.172 26.083-1.741 2.923-23.077 31.024-24.538 32.318-.521.462-1.106.481-3.398.109-9.53-1.547-19.206.017-27.234 4.401-24.196 13.213-29.001 45.612-9.697 65.387 2.917 2.988 3.025 3.021 2.68.815-1.258-8.036-.963-15.088.918-21.953l.472-1.721v-4.136c0-6.119.161-7.339 1.405-10.665 1.047-2.798 3.841-7.709 4.386-7.709.122 0 2.105.837 4.753 2.006 2.069.913 1.844.97 4.503-1.144 2.609-2.074 4.36-3.199 8.402-5.4 3.136-1.707 3.135-1.707 3.678-2.975.248-.581.509-1.132.579-1.225.2-.265 1.416-.202 3.534.184l1.937.353 2.339-.355c8.725-1.326 14.351-.97 22.338 1.411 1.766.526 3.478.968 3.802.981l.591.024 2.788-3.644c1.533-2.004 5.939-7.773 9.792-12.821 13.043-17.088 11.795-15.819 16.536-16.81 1.15-.241 2.099-.443 2.109-.451.142-.104 1.427-11.661 2.814-25.313.666-6.556.66-6.481.496-6.481-.195 0-5.842 7.762-19.882 27.328-22.978 32.023-21.967 30.631-22.288 30.671-.185.022-.619-.217-1.171-.646-1.847-1.436-5.502-4.16-6.309-4.704-.464-.312-.843-.626-.843-.698 0-.437 112.487-140.043 114.278-141.83.592-.589-5.9 8.566-26.222 36.978-24.151 33.764-22.52 31.444-22.09 31.444.82 0 65.954-32.498 67.383-33.619.531-.418 7.844-16.276 40.88-88.649 20.312-44.498 24.64-54.091 24.986-55.386.38-1.42-1.082-2.569-2.312-1.819m79.817 80.604c-2.963 1.238-15.84 7.583-76.72 37.801-99.802 49.535-141.189 70.321-142.491 71.56-.91.867-.88.628-4.54 35.796-1.293 12.418-1.834 16.711-2.39 18.961l-.3 1.215-1.152 1.153c-.633.634-3.793 3.311-7.022 5.948-8.018 6.549-19.266 15.709-22.144 18.033l-2.374 1.917-1.674-.757c-16.757-7.575-34.942-4.516-47.429 7.978-22.283 22.299-12.586 60.178 17.671 69.026 4.474 1.308 9.393 1.753 15.194 1.373 16.214-1.062 30.643-12.598 35.831-28.646 1.438-4.449 1.589-5.803 1.518-13.61l-.055-6.005-.411-1.687c-.534-2.188-.62-2.846-.409-3.107.425-.527 16.862-14.041 24.997-20.553 6.757-5.409 7.345-5.826 8.524-6.047 1.251-.234 2.826-.096 30.815 2.709 19.497 1.954 22.856 2.253 23.782 2.113 1.343-.203 1.112.064 14.189-16.41 50.595-63.738 138.227-174.785 139.181-176.369.632-1.051.603-1.512-.144-2.259-.727-.727-.992-.742-2.447-.133m-273.508 84.26c-.271.798-1.351 3.971-2.401 7.051-2.237 6.567-17.729 53.354-20.979 63.361-2.41 7.421-2.368 7.217-1.5 7.22.462.002 5.583.397 7.006.54 3.341.337 2.913.886 6.445-8.268 1.964-5.091 2.784-7.061 3.207-7.701.589-.894 2.848-2.235 6.966-4.133l2.295-1.057 2.59-3.49c3.233-4.353 3.55-4.872 3.55-5.803 0-1.912-6.397-49.171-6.655-49.171-.018 0-.254.653-.524 1.451m167.827 3.832c-1.129 1.274-134.149 115.713-137.175 118.014-.97.738-.759.859-2.578-1.482-.758-.976-2.149-2.693-3.092-3.816l-1.714-2.041 1.301-1.071c1.683-1.386 4.029-3.186 72.623-55.725 65.885-50.464 70.728-54.167 70.838-54.168.03 0-.061.13-.203.289m-225.965 87.658c-11.102 1.877-22.204 9.573-28.264 19.593-2.951 4.878-4.668 9.884-5.632 16.414-.238 1.607-.233 8.354.006 9.851 2.984 18.665 15.211 31.905 32.887 35.612 4.046.849 15.739.776 16.618-.102.109-.11-4.849-8.253-5.338-8.768-.271-.285-1.214-1.038-2.096-1.673-.881-.635-2.649-1.986-3.928-3.003-1.28-1.016-2.441-1.894-2.581-1.951-.141-.057-.923-.333-1.74-.612-12.222-4.188-19.252-14.845-18.028-27.33.416-4.248 1.876-7.966 4.847-12.348 1.635-2.41 1.965-3.082 2.655-5.398 2.127-7.134 4.712-11.908 9.83-18.152 1.33-1.622 1.694-2.254 1.27-2.208-.093.01-.321.044-.506.075m55.829 27.851c3.35.28 3.392.313 3.588 2.834.757 9.707-4.639 19.942-12.687 24.063l-.436.224.14-.37c2.523-6.635 2.762-16.41.621-25.371-.241-1.008-.214-1.042 1.002-1.308 1.074-.235 5.348-.274 7.772-.072m-23.069 11.755c.201 5.293-1.363 11.009-4.211 15.383-1.225 1.882-1.34 1.822-1.404-.736-.143-5.78 1.02-10.088 4.047-14.986 1.349-2.185 1.473-2.158 1.568.339m43.198 3.216c2.565 5.942 2.848 12.968.757 18.758-3.389 9.384-12.502 16.427-21.924 16.944-1.882.103-6.478-.135-7.706-.4-2.487-.536-8.762-3.379-8.988-4.073-.031-.092.652-.257 1.839-.444 16.686-2.632 29.897-14.504 34.226-30.756.192-.721.414-1.518.493-1.771l.143-.459.245.324c.135.179.547 1.023.915 1.877" fill-rule="evenodd"/></svg>

<svg id="svg" xmlns="http://www.w3.org/2000/svg" xmlns:xlink="http://www.w3.org/1999/xlink" width="400" height="400" viewBox="0, 0, 400,400"><g id="svgg"><path id="path0" d="M181.930 0.769 C 181.653 0.881,181.037 1.617,180.151 2.896 C 176.354 8.373,58.850 192.125,50.234 206.058 C 48.640 208.637,48.622 209.116,49.998 212.335 C 51.219 215.192,62.528 239.620,69.149 253.704 C 71.748 259.232,71.710 259.109,71.381 260.940 C 71.040 262.833,70.200 265.285,64.103 282.186 C 60.694 291.633,59.357 295.434,59.419 295.497 C 59.443 295.520,60.461 294.958,61.681 294.247 C 65.203 292.194,66.900 291.385,70.523 290.031 C 71.641 289.613,72.685 289.180,72.841 289.069 C 73.219 288.800,72.408 290.834,105.581 207.018 C 134.276 134.514,135.479 131.490,135.488 131.834 C 135.498 132.238,133.815 137.500,129.419 150.810 C 117.304 187.484,114.132 197.301,114.394 197.301 C 114.637 197.301,116.701 195.575,142.735 173.588 C 160.136 158.893,164.379 155.248,164.494 154.894 C 165.022 153.277,170.213 113.797,180.904 30.094 C 184.381 2.869,184.449 2.229,183.929 1.567 C 183.484 1.002,182.413 0.574,181.930 0.769 M303.786 44.684 C 301.858 45.859,273.354 69.712,206.815 125.831 C 154.464 169.984,119.879 199.216,117.084 201.675 C 115.196 203.336,115.184 204.123,116.860 216.697 C 117.154 218.907,118.216 226.849,119.219 234.345 C 122.741 260.676,122.558 258.469,121.391 260.428 C 119.650 263.351,98.314 291.452,96.853 292.746 C 96.332 293.208,95.747 293.227,93.455 292.855 C 83.925 291.308,74.249 292.872,66.221 297.256 C 42.025 310.469,37.220 342.868,56.524 362.643 C 59.441 365.631,59.549 365.664,59.204 363.458 C 57.946 355.422,58.241 348.370,60.122 341.505 L 60.594 339.784 60.594 335.648 C 60.594 329.529,60.755 328.309,61.999 324.983 C 63.046 322.185,65.840 317.274,66.385 317.274 C 66.507 317.274,68.490 318.111,71.138 319.280 C 73.207 320.193,72.982 320.250,75.641 318.136 C 78.250 316.062,80.001 314.937,84.043 312.736 C 87.179 311.029,87.178 311.029,87.721 309.761 C 87.969 309.180,88.230 308.629,88.300 308.536 C 88.500 308.271,89.716 308.334,91.834 308.720 L 93.771 309.073 96.110 308.718 C 104.835 307.392,110.461 307.748,118.448 310.129 C 120.214 310.655,121.926 311.097,122.250 311.110 L 122.841 311.134 125.629 307.490 C 127.162 305.486,131.568 299.717,135.421 294.669 C 148.464 277.581,147.216 278.850,151.957 277.859 C 153.107 277.618,154.056 277.416,154.066 277.408 C 154.208 277.304,155.493 265.747,156.880 252.095 C 157.546 245.539,157.540 245.614,157.376 245.614 C 157.181 245.614,151.534 253.376,137.494 272.942 C 114.516 304.965,115.527 303.573,115.206 303.613 C 115.021 303.635,114.587 303.396,114.035 302.967 C 112.188 301.531,108.533 298.807,107.726 298.263 C 107.262 297.951,106.883 297.637,106.883 297.565 C 106.883 297.128,219.370 157.522,221.161 155.735 C 221.753 155.146,215.261 164.301,194.939 192.713 C 170.788 226.477,172.419 224.157,172.849 224.157 C 173.669 224.157,238.803 191.659,240.232 190.538 C 240.763 190.120,248.076 174.262,281.112 101.889 C 301.424 57.391,305.752 47.798,306.098 46.503 C 306.478 45.083,305.016 43.934,303.786 44.684 M383.603 125.288 C 380.640 126.526,367.763 132.871,306.883 163.089 C 207.081 212.624,165.694 233.410,164.392 234.649 C 163.482 235.516,163.512 235.277,159.852 270.445 C 158.559 282.863,158.018 287.156,157.462 289.406 L 157.162 290.621 156.010 291.774 C 155.377 292.408,152.217 295.085,148.988 297.722 C 140.970 304.271,129.722 313.431,126.844 315.755 L 124.470 317.672 122.796 316.915 C 106.039 309.340,87.854 312.399,75.367 324.893 C 53.084 347.192,62.781 385.071,93.038 393.919 C 97.512 395.227,102.431 395.672,108.232 395.292 C 124.446 394.230,138.875 382.694,144.063 366.646 C 145.501 362.197,145.652 360.843,145.581 353.036 L 145.526 347.031 145.115 345.344 C 144.581 343.156,144.495 342.498,144.706 342.237 C 145.131 341.710,161.568 328.196,169.703 321.684 C 176.460 316.275,177.048 315.858,178.227 315.637 C 179.478 315.403,181.053 315.541,209.042 318.346 C 228.539 320.300,231.898 320.599,232.824 320.459 C 234.167 320.256,233.936 320.523,247.013 304.049 C 297.608 240.311,385.240 129.264,386.194 127.680 C 386.826 126.629,386.797 126.168,386.050 125.421 C 385.323 124.694,385.058 124.679,383.603 125.288 M110.095 209.548 C 109.824 210.346,108.744 213.519,107.694 216.599 C 105.457 223.166,89.965 269.953,86.715 279.960 C 84.305 287.381,84.347 287.177,85.215 287.180 C 85.677 287.182,90.798 287.577,92.221 287.720 C 95.562 288.057,95.134 288.606,98.666 279.452 C 100.630 274.361,101.450 272.391,101.873 271.751 C 102.462 270.857,104.721 269.516,108.839 267.618 L 111.134 266.561 113.724 263.071 C 116.957 258.718,117.274 258.199,117.274 257.268 C 117.274 255.356,110.877 208.097,110.619 208.097 C 110.601 208.097,110.365 208.750,110.095 209.548 M277.922 213.380 C 276.793 214.654,143.773 329.093,140.747 331.394 C 139.777 332.132,139.988 332.253,138.169 329.912 C 137.411 328.936,136.020 327.219,135.077 326.096 L 133.363 324.055 134.664 322.984 C 136.347 321.598,138.693 319.798,207.287 267.259 C 273.172 216.795,278.015 213.092,278.125 213.091 C 278.155 213.091,278.064 213.221,277.922 213.380 M51.957 301.038 C 40.855 302.915,29.753 310.611,23.693 320.631 C 20.742 325.509,19.025 330.515,18.061 337.045 C 17.823 338.652,17.828 345.399,18.067 346.896 C 21.051 365.561,33.278 378.801,50.954 382.508 C 55.000 383.357,66.693 383.284,67.572 382.406 C 67.681 382.296,62.723 374.153,62.234 373.638 C 61.963 373.353,61.020 372.600,60.138 371.965 C 59.257 371.330,57.489 369.979,56.210 368.962 C 54.930 367.946,53.769 367.068,53.629 367.011 C 53.488 366.954,52.706 366.678,51.889 366.399 C 39.667 362.211,32.637 351.554,33.861 339.069 C 34.277 334.821,35.737 331.103,38.708 326.721 C 40.343 324.311,40.673 323.639,41.363 321.323 C 43.490 314.189,46.075 309.415,51.193 303.171 C 52.523 301.549,52.887 300.917,52.463 300.963 C 52.370 300.973,52.142 301.007,51.957 301.038 M107.786 328.889 C 111.136 329.169,111.178 329.202,111.374 331.723 C 112.131 341.430,106.735 351.665,98.687 355.786 L 98.251 356.010 98.391 355.640 C 100.914 349.005,101.153 339.230,99.012 330.269 C 98.771 329.261,98.798 329.227,100.014 328.961 C 101.088 328.726,105.362 328.687,107.786 328.889 M84.717 340.644 C 84.918 345.937,83.354 351.653,80.506 356.027 C 79.281 357.909,79.166 357.849,79.102 355.291 C 78.959 349.511,80.122 345.203,83.149 340.305 C 84.498 338.120,84.622 338.147,84.717 340.644 M127.915 343.860 C 130.480 349.802,130.763 356.828,128.672 362.618 C 125.283 372.002,116.170 379.045,106.748 379.562 C 104.866 379.665,100.270 379.427,99.042 379.162 C 96.555 378.626,90.280 375.783,90.054 375.089 C 90.023 374.997,90.706 374.832,91.893 374.645 C 108.579 372.013,121.790 360.141,126.119 343.889 C 126.311 343.168,126.533 342.371,126.612 342.118 L 126.755 341.659 127.000 341.983 C 127.135 342.162,127.547 343.006,127.915 343.860 " stroke="none" fill="#000000" fill-rule="evenodd"></path></g></svg>
